assets/icons/18px/email-18px.svg

<svg width="18" height="18" viewBox="0 0 18 18" fill="none" xmlns="http://www.w3.org/2000/svg">
<path d="M2.5 6.5C2.5 5.55719 2.5 5.08579 2.79289 4.79289C3.08579 4.5 3.55719 4.5 4.5 4.5H13.5C14.4428 4.5 14.9142 4.5 15.2071 4.79289C15.5 5.08579 15.5 5.55719 15.5 6.5V12C15.5 12.9428 15.5 13.4142 15.2071 13.7071C14.9142 14 14.4428 14 13.5 14H4.5C3.55719 14 3.08579 14 2.79289 13.7071C2.5 13.4142 2.5 12.9428 2.5 12V6.5Z" stroke="white"/>
<path d="M3.40002 4.7998L6.60002 7.1998C7.75558 8.06647 8.33336 8.4998 9.00002 8.4998C9.66669 8.4998 10.2445 8.06647 11.4 7.1998L14.6 4.7998" stroke="white"/>
</svg>

<svg width="18" height="18" fill="none" xmlns="http://www.w3.org/2000/svg"><path d="M2.5 6.5c0-.943 0-1.414.293-1.707C3.086 4.5 3.557 4.5 4.5 4.5h9c.943 0 1.414 0 1.707.293.293.293.293.764.293 1.707V12c0 .943 0 1.414-.293 1.707-.293.293-.764.293-1.707.293h-9c-.943 0-1.414 0-1.707-.293C2.5 13.414 2.5 12.943 2.5 12V6.5z" stroke="#fff"/><path d="M3.4 4.8l3.2 2.4c1.156.866 1.733 1.3 2.4 1.3.667 0 1.245-.434 2.4-1.3l3.2-2.4" stroke="#fff"/></svg>
